X:78
T:Bridge of Perth, The
R:Reel
C:Daniel Dow
S:McGlashan - Reels (pg. 27)
M:C|
L:1/8
K:A
A/B/c/d/ eA dAfA|cAec ae c2|A/B/c/d/ ed ceAc|Bd=GB gd B2:|
Aaea caea|Aaef eA c2|Aaea caea|=gaeg B=G B2|Aaea caea|Aaef eA c2|
Aaga eaca|Bgdg BG B2||

